X:389
T: AN DER QUELLE SASS DER KNABE
N: B0464
O: Europa, Mitteleuropa, Deutschland; Frankreich, Elsass
R: Liebes - Lied, Leid, Klage, Sehnsucht
M: 3/4
L: 1/16
K: A
E2E2 | c6B2c3B | A4E4
G2A2 | B6A2B2c2 | A8
E2E2 | c6B2c3B | A4E4
G2A2 | B6A2B2c2 | A8
c2c2 | c6B2A2G2 | F4F4
c2c2 | c2d2e4c4 | B8
G2F2 | E6G2B2d2 | f4e4
c2e2 | e6d2B2c2 | A8
G2F2 | E6G2B2d2 | f4e4
c2e2 | e6d2B2c2 | A8

